X: 190778
T: Kelly's Hornpipe
S: Allan's Irish Fiddler
Z: B.Black
N: simplified version - original in cut time
L: 1/8
M: C|
R: hornpipe
K: G
d2|gfgd BcdB|edec A2 AG|cBcA FGAF|GABc d2 d2|
gfgd BcdB|edec A2 AG|cBcA FGAF|G2 B2 G2 :|
D2|B,DGA BAGF|ECEG cBAG|FDFA dBcA|BFGE D2 D2|
B,DGA BAGF|ECEG cBAG|FGAB cdef|g2 g2 g2 :|
